X: 7200
T: Circus Boy
R: jig
M: 6/8
K: Gmajor
d|:"G"B2 d b2a|g2> d2^cd|"G" B2 d "E7/G#"e2d|"Am" c2F "D7"A2F|
[1 "D7" DFA d2f|a3g3|f2 cB2c|"G"B2>"D7" d2^c=c:|
[2 "D7"DFA d2e|f3f2e|d^cd =cBA|"G" G3G2||
K:D
|:A||"D"F2A d2f|afb a2f|"A7" g2a g2 e|"D" f2 d "A7"A^G =G|
[1 "D"F2 A d2 f|afb a2 f|"A7" g2 e cde|"D"d3d2:|
[2 "D"F2 A d2f|afb a2f|"A7"gec ABc|"D" d2c"(D7)" =c2d||

